src/assets/icons/external-link.svg

<svg width="14" height="14" viewBox="0 0 14 14" fill="none" xmlns="http://www.w3.org/2000/svg">
<g id="external-link">
<g clip-path="url(#clip0_156_4636)">
<path id="Vector" fill-rule="evenodd" clip-rule="evenodd" d="M0 2.2C0 0.988629 0.988629 0 2.2 0H7C7.33137 0 7.6 0.268629 7.6 0.6C7.6 0.931371 7.33137 1.2 7 1.2H2.2C1.65137 1.2 1.2 1.65137 1.2 2.2V11.8C1.2 12.3486 1.65137 12.8 2.2 12.8H11.8C12.3486 12.8 12.8 12.3486 12.8 11.8V7C12.8 6.66863 13.0686 6.4 13.4 6.4C13.7314 6.4 14 6.66863 14 7V11.8C14 13.0114 13.0114 14 11.8 14H2.2C0.988629 14 0 13.0114 0 11.8V2.2ZM9.6 0.6C9.6 0.268629 9.86863 0 10.2 0H13.4C13.4814 0 13.5589 0.0161913 13.6297 0.0455273C13.7004 0.0748072 13.7667 0.11821 13.8243 0.175736C13.8818 0.233262 13.9252 0.299563 13.9545 0.37033C13.9801 0.432069 13.9957 0.499009 13.9992 0.569124C13.9997 0.579351 14 0.589645 14 0.6V3.8C14 4.13137 13.7314 4.4 13.4 4.4C13.0686 4.4 12.8 4.13137 12.8 3.8V2.04853L8.62426 6.22426C8.38995 6.45858 8.01005 6.45858 7.77574 6.22426C7.54142 5.98995 7.54142 5.61005 7.77574 5.37574L11.9515 1.2H10.2C9.86863 1.2 9.6 0.931371 9.6 0.6Z" fill="black"/>
</g>
</g>
<defs>
<clipPath id="clip0_156_4636">
<rect width="14" height="14" fill="white"/>
</clipPath>
</defs>
</svg>

<svg xmlns="http://www.w3.org/2000/svg" fill="none" viewBox="0 0 14 14"><g clip-path="url(#a)"><path fill="#000" fill-rule="evenodd" d="M0 2.2C0 .989.989 0 2.2 0H7a.6.6 0 0 1 0 1.2H2.2c-.549 0-1 .451-1 1v9.6c0 .549.451 1 1 1h9.6c.549 0 1-.451 1-1V7A.6.6 0 1 1 14 7v4.8c0 1.211-.989 2.2-2.2 2.2H2.2C.989 14 0 13.011 0 11.8zM9.6.6a.6.6 0 0 1 .6-.6h3.2a.6.6 0 0 1 .6.6v3.2a.6.6 0 1 1-1.2 0V2.049L8.624 6.224a.6.6 0 1 1-.848-.848L11.952 1.2H10.2a.6.6 0 0 1-.6-.6" clip-rule="evenodd"/></g><defs><clipPath id="a"><path fill="#fff" d="M0 0h14v14H0z"/></clipPath></defs></svg>
